X:9
T:scratch
C:Ali Corbin
M:3/2
L:1/2
Q:1/2=100
K:Dmin
%%MIDI program 1 41 % Viola
%%MIDI program 2 41 % Viola
%%MIDI program 3 41 % Viola
V:Top name="Top" snm="Top"
z3|z3|z3|z3|z3|z3|dAd|ad'a|gzc|dcB|A2z|
d/f/d/A/G|A/d/f/d/B|A/d/A/F/F/>z/|F/A/c/f/c|A/d/f/d/B|c2z|
G//A//=B/c/de/|E//F//G/A/=Bc/|C//D//E/F/GA/|=B2z|d//c//=B/A/GF/|=B//A//G/F/ED/|C2 z|
V:Melody name="Melody" snm="Mel"
z3|z3|z3|z3|z2 D|
D2 (C/2D/2)|F2 (G/2F/2)|D2 A|c2 (A/2G/2)|F2 G|A2
D|D2 (C/2D/2)|F2 (G/2F/2)|D2 A|c2 (A/2G/2)|F2 G|A2
A|c2 (A/2G/2)|A2 (G/2F/2)|D2 (C/2A,/2)|C2 C|D2 (C/2D/2)|F2 (G/2F/2)|D2z|
V:Ground name="Ground" snm="Gr."
D3|F3|z3|D3|F3|z3|D3|F3|z3|D3|F3|
z3|D3|F3|z3|D3|F3|
z3|D3|F3|z3|D3|F3|z3|
